storage/app/icons/phosphoricons/fill/cube-transparent-fill.svg

<svg xmlns="http://www.w3.org/2000/svg" fill="currentColor" viewBox="0 0 256 256"><path d="M104 152v-48h48v48ZM32 53v95a4 4 0 0 0 4 4h52V99.31L38.83 50.14A4 4 0 0 0 32 53m188 51h-52v52.69l49.17 49.17A4 4 0 0 0 224 203v-95a4 4 0 0 0-4-4m-68-68a4 4 0 0 0-4-4H53a4 4 0 0 0-2.83 6.83L99.31 88H152Zm60.49 45.17-37.66-37.66a4 4 0 0 0-6.83 2.83V88h41.66a4 4 0 0 0 2.83-6.83M156.69 168H104v52a4 4 0 0 0 4 4h95a4 4 0 0 0 2.83-6.83Zm-113.18 6.83 37.66 37.66a4 4 0 0 0 6.83-2.83V168H46.34a4 4 0 0 0-2.83 6.83"/></svg>

<svg xmlns="http://www.w3.org/2000/svg" viewBox="0 0 256 256" fill="currentColor"><path d="M104,152V104h48v48ZM32,53v95a4,4,0,0,0,4,4H88V99.31L38.83,50.14A4,4,0,0,0,32,53Zm188,51H168v52.69l49.17,49.17A4,4,0,0,0,224,203V108A4,4,0,0,0,220,104ZM152,36a4,4,0,0,0-4-4H53a4,4,0,0,0-2.83,6.83L99.31,88H152Zm60.49,45.17L174.83,43.51A4,4,0,0,0,168,46.34V88h41.66A4,4,0,0,0,212.49,81.17ZM156.69,168H104v52a4,4,0,0,0,4,4h95a4,4,0,0,0,2.83-6.83ZM43.51,174.83l37.66,37.66A4,4,0,0,0,88,209.66V168H46.34A4,4,0,0,0,43.51,174.83Z"/></svg>
